packages/web-icons/svgs/book_5.svg

<svg viewBox="0 0 40 48" xmlns="http://www.w3.org/2000/svg" class="ridi_icon"><path d="M35.6 0H4.4C2.2 0 .5 1.8.5 3.9V44c0 2.2 1.8 3.9 3.9 3.9h31.2c2.2 0 3.9-1.8 3.9-3.9V3.9c0-2.1-1.7-3.9-3.9-3.9zm1.3 44.1c0 .7-.6 1.3-1.3 1.3H11.2V2.6h24.5c.7 0 1.3.6 1.3 1.3l-.1 40.2zM4.4 45.4c-.7 0-1.3-.6-1.3-1.3V3.9c0-.7.6-1.3 1.3-1.3h4.2v42.8H4.4z"/></svg>

<?xml version="1.0" encoding="UTF-8"?>
<svg width="40px" height="48px" viewBox="0 0 40 48" version="1.1" xmlns="http://www.w3.org/2000/svg">
  <!-- Generator: Sketch 41.2 (35397) - http://www.bohemiancoding.com/sketch -->
  <title>book_5</title>
  <desc>Created with Sketch.</desc>
  <defs></defs>
  <g id="Page-1" stroke="none" stroke-width="1" fill="none" fill-rule="evenodd">
    <g id="book_5" fill="#444444">
      <g id="레이어_1">
        <path d="M35.6,0 L4.4,0 C2.2,0 0.5,1.8 0.5,3.9 L0.5,44 C0.5,46.2 2.3,47.9 4.4,47.9 L35.6,47.9 C37.8,47.9 39.5,46.1 39.5,44 L39.5,3.9 C39.5,1.8 37.8,0 35.6,0 Z M36.9,44.1 C36.9,44.8 36.3,45.4 35.6,45.4 L11.2,45.4 L11.2,2.6 L35.7,2.6 C36.4,2.6 37,3.2 37,3.9 L36.9,44.1 L36.9,44.1 Z M4.4,45.4 C3.7,45.4 3.1,44.8 3.1,44.1 L3.1,3.9 C3.1,3.2 3.7,2.6 4.4,2.6 L8.6,2.6 L8.6,45.4 L4.4,45.4 L4.4,45.4 Z" id="Shape"></path>
      </g>
    </g>
  </g>
</svg>
